X:1
T: Harlequin
C:
R:Reel
Q: 232
K:Am
M:4/4
L:1/8
|:E2|A2 A^G AB cd|e^d ef ec A2|BA Bc ed cB|A^G Ac BG E2|
A2 A^G AB cd|e^d ef ec A2|df ed cB A^G|A2 a2 A2:|
|:G2|c2 cB cd ef|g^f ga ge c2|dc de gf ed|cB ce dB G2|
c2 cB cd ef|g^f ga ge c2|df ed cB AB|d2 c2 c2:|
